app/dist/common/images/avista.svg

<svg height="18" width="18" xmlns="http://www.w3.org/2000/svg"><path d="m0 0h18v18h-18z" fill="#003768"/><path d="m11.254 7.826 2.302-.398.444-2.426h-3.002l.257 2.824zm2.216.039-2.166.428.025.221 2.094-.336zm-.135.735-1.963.383-.003.223 1.907-.327.06-.28zm-3.293 1.216-.2.028.013 3.156h.527zm.764 0-.18.023-.012 3.161h.526zm-.042-4.814-.542-.002.257 3.201.283-.056zm-1.504 4.376-3.76.555-.442.54 4.23-.874zm2.11.31v3.312h1.06l.77-3.672zm-1.643-1.487.27-.057v-3.142h-.532l.008.096zm-.415 1.865-4.463.668-1.845 2.266h3.39l1.091-1.201h2.002zm-.025-1.869v-2.988l-2.932 3.61zm0 .48-3.137.457-.404.49 3.541-.722z" fill="#fff"/></svg>

<!-- by TradingView --><svg width="18" height="18" xmlns="http://www.w3.org/2000/svg"><path fill="#003768" d="M0 0h18v18H0z"/><path d="M11.254 7.826l2.302-.398L14 5.002h-3.002l.257 2.824zM13.47 7.865l-2.166.428.025.221 2.094-.336.047-.313zM13.335 8.6l-1.963.383-.003.223 1.907-.327.06-.28zM10.042 9.816l-.2.028L9.855 13h.527l-.34-3.184zM10.806 9.816l-.18.023L10.614 13h.526l-.334-3.184zM10.764 5.002L10.222 5l.257 3.201.283-.056.002-3.143zM9.26 9.378l-3.76.555-.442.54 4.23-.874-.028-.221zM11.37 9.688V13h1.06l.77-3.672-1.83.36zM9.727 8.201l.27-.057V5.002h-.532l.008.096.254 3.103zM9.312 10.066l-4.463.668L3.004 13h3.39l1.091-1.201h2.002l-.175-1.733zM9.287 8.197V5.209l-2.932 3.61 2.932-.622zM9.287 8.677l-3.137.457-.404.49 3.541-.722v-.225z" fill="#fff"/></svg>
